assets/svg/1F364.svg

<svg xmlns="http://www.w3.org/2000/svg" viewBox="0 0 64 64" enable-background="new 0 0 64 64"><path fill="#faad41" d="m14.819 56.952c12.149 5.566 23.706-1.347 25.788-7.256 4.245-12.03-4.599-19.522-8.925-21.292-7.608-3.12-12.02 4.634-16.232 11.767-4.208 7.13-8.111 13.354-.631 16.781"/><g fill="#be202e"><path d="m56.797 29.752c.04-.578.027-1.268.258-1.809.477-1.148 1.177-1.702 2.296-2.22 1.336-.622 4.72-1.367 4.488-3.435-.055-.498-.225-.937-.476-1.327-4.159-1.889-8.321-3.778-12.481-5.671.1.008.07-.135-.04-.199-3.128-.144-4.578 2.224-4.436 5.211.199.271.425.359.425.359 2.93 3.594 5.854 7.185 8.788 10.779.647-.202 1.112-.708 1.178-1.688"/><path d="m32.483 22.771c-6.05-.14-3.42-3.734-2.901-7.376.521-3.634.873-6.87 6.924-6.727 6.06.144 14.252 5.256 13.728 8.894-.518 3.634-11.694 5.352-17.751 5.209"/></g><path fill="#d08b38" d="m27.359 26.17c-6.121.769-3.929-4.299-3.872-9.1.06-4.794 0-9.04 6.121-9.807 6.13-.773 15.05 4.563 14.992 9.36-.062 4.791-11.11 8.775-17.241 9.544"/><path fill="#ecbe98" d="m6.253 31.454c-6.121.769-3.931-4.304-3.872-9.1.06-4.798 0-9.04 6.121-9.811 6.126-.769 15.05 4.566 14.989 9.36-.059 4.794-11.11 8.78-17.238 9.549"/><path fill="#f4ab5d" d="m8.877 51.788c-3.733-2.204 1.08-5.699 4.594-9.954 3.511-4.256 6.559-8.07 10.291-5.866 3.74 2.208 4.493 11.19.984 15.441-3.51 4.256-12.13 2.591-15.869.379"/><path fill="#e59d3d" d="m20.415 35.442c2.583-.948 3.123-5.073 4.704-7.707 4.69-2 8.9-6.962 7.767-12.369-.917-4.363-4.164-7.157-7.898-7.276-2.876-2.088-6.716-2.694-10.585-1.275-6.813 2.502-5.066 10.169-3.562 17.322 1.501 7.149 2.763 13.803 9.574 11.305"/><path fill="#ecbe98" d="m19.33 26.376c-.421-6.762-.048-13.513.35-20.267-1.691-.16-3.479.048-5.278.705-6.812 2.503-5.065 10.17-3.561 17.323.036.175.072.347.107.518 2.795.57 5.588 1.148 8.382 1.721"/><path fill="#e59d3d" d="m15.276 51.632c2.738-1.091 4.846-3.318 6.28-6.05 4.944-2.264 7.833-9.804 5.109-14.816-7.485-13.764-17.33-9.257-21.434-7.619-7.229 2.873-4.388 10.5-1.877 17.622 2.508 7.112 4.694 13.747 11.922 10.865"/><g fill="#ecbe98"><path d="m10.419 32.784c2.437-1.295-3.889-7.527-5.78-9.36-5.643 2.686-4.258 8.675-2.182 14.771 2.02-1.314 7.153-4.98 7.962-5.411"/><path d="m20.02 37.821c-1.138-1.666-16.842 2.446-16.665 2.945 2.154 6.108 4.081 11.842 9.155 11.523 1.1-1.848 8.641-12.803 7.51-14.468"/></g></svg>

<?xml version="1.0" encoding="UTF-8" standalone="no"?>
<!-- Generator: Adobe Illustrator 16.0.0, SVG Export Plug-In . SVG Version: 6.00 Build 0)  -->

<svg
   xmlns:dc="http://purl.org/dc/elements/1.1/"
   xmlns:cc="http://creativecommons.org/ns#"
   xmlns:rdf="http://www.w3.org/1999/02/22-rdf-syntax-ns#"
   xmlns:svg="http://www.w3.org/2000/svg"
   xmlns="http://www.w3.org/2000/svg"
   xmlns:sodipodi="http://sodipodi.sourceforge.net/DTD/sodipodi-0.dtd"
   xmlns:inkscape="http://www.inkscape.org/namespaces/inkscape"
   version="1.1"
   id="Layer_1"
   x="0px"
   y="0px"
   width="64px"
   height="64px"
   viewBox="0 0 64 64"
   enable-background="new 0 0 64 64"
   xml:space="preserve"
   inkscape:version="0.48.5 r10040"
   sodipodi:docname="1F364.svg"
   inkscape:export-filename="D:\TESTINGEMOJI\SVGTEST\1F364.png"
   inkscape:export-xdpi="90"
   inkscape:export-ydpi="90"><metadata
   id="metadata5247"><rdf:RDF><cc:Work
       rdf:about=""><dc:format>image/svg+xml</dc:format><dc:type
         rdf:resource="http://purl.org/dc/dcmitype/StillImage" /><dc:title></dc:title></cc:Work></rdf:RDF></metadata><defs
   id="defs5245" /><sodipodi:namedview
   pagecolor="#ffffff"
   bordercolor="#666666"
   borderopacity="1"
   objecttolerance="10"
   gridtolerance="10"
   guidetolerance="10"
   inkscape:pageopacity="0"
   inkscape:pageshadow="2"
   inkscape:window-width="640"
   inkscape:window-height="480"
   id="namedview5243"
   showgrid="false"
   inkscape:zoom="3.6875"
   inkscape:cx="32"
   inkscape:cy="32"
   inkscape:window-x="191"
   inkscape:window-y="203"
   inkscape:window-maximized="0"
   inkscape:current-layer="Layer_1" />
<g
   id="g5199">
	<path
   fill="#FAAD41"
   d="M14.819,56.952c12.149,5.566,23.706-1.347,25.788-7.256c4.245-12.035-4.599-19.522-8.925-21.292   c-7.608-3.12-12.016,4.634-16.232,11.767C11.242,47.301,7.339,53.525,14.819,56.952z"
   id="path5201" />
</g>
<g
   id="g5203">
	<path
   fill="#BE202E"
   d="M56.797,29.752c0.04-0.578,0.027-1.268,0.258-1.809c0.477-1.148,1.177-1.702,2.296-2.22   c1.336-0.622,4.72-1.367,4.488-3.435c-0.055-0.498-0.225-0.937-0.476-1.327c-4.159-1.889-8.321-3.778-12.481-5.671   c0.1,0.008,0.07-0.135-0.04-0.199c-3.128-0.144-4.578,2.224-4.436,5.211c0.199,0.271,0.425,0.359,0.425,0.359   c2.93,3.594,5.854,7.185,8.788,10.779C56.266,31.238,56.731,30.732,56.797,29.752z"
   id="path5205" />
</g>
<g
   id="g5207">
	<path
   fill="#BE202E"
   d="M32.483,22.771c-6.048-0.14-3.42-3.734-2.901-7.376c0.521-3.634,0.873-6.87,6.924-6.727   c6.059,0.144,14.252,5.256,13.728,8.894C49.716,21.196,38.54,22.914,32.483,22.771z"
   id="path5209" />
</g>
<g
   id="g5211">
	<path
   fill="#D08B38"
   d="M27.359,26.173c-6.121,0.769-3.929-4.299-3.872-9.097c0.06-4.794,0-9.042,6.121-9.807   c6.13-0.773,15.052,4.563,14.992,9.36C44.538,21.42,33.487,25.404,27.359,26.173z"
   id="path5213" />
</g>
<g
   id="g5215">
	<path
   fill="#ECBE98"
   d="M6.253,31.454c-6.121,0.769-3.931-4.304-3.872-9.098c0.06-4.798,0-9.042,6.121-9.811   c6.126-0.769,15.051,4.566,14.989,9.36C23.432,26.699,12.383,30.685,6.253,31.454z"
   id="path5217" />
</g>
<g
   id="g5219">
	<path
   fill="#F4AB5D"
   d="M8.877,51.788c-3.733-2.204,1.08-5.699,4.594-9.954c3.511-4.256,6.559-8.073,10.291-5.866   c3.74,2.208,4.493,11.19,0.984,15.441C21.236,55.665,12.614,54,8.877,51.788z"
   id="path5221" />
</g>
<g
   id="g5223">
	<path
   fill="#E59D3D"
   d="M20.415,35.442c2.583-0.948,3.123-5.073,4.704-7.707c4.69-2,8.9-6.962,7.767-12.369   c-0.917-4.363-4.164-7.157-7.898-7.276c-2.876-2.088-6.716-2.694-10.585-1.275C7.59,9.317,9.337,16.984,10.841,24.137   C12.342,31.286,13.604,37.94,20.415,35.442z"
   id="path5225" />
</g>
<g
   id="g5227">
	<path
   fill="#ECBE98"
   d="M19.33,26.376c-0.421-6.762-0.048-13.513,0.35-20.267c-1.691-0.16-3.479,0.048-5.278,0.705   C7.59,9.317,9.337,16.984,10.841,24.137c0.036,0.175,0.072,0.347,0.107,0.518C13.743,25.225,16.536,25.803,19.33,26.376z"
   id="path5229" />
</g>
<g
   id="g5231">
	<path
   fill="#E59D3D"
   d="M15.276,51.632c2.738-1.091,4.846-3.318,6.28-6.052c4.944-2.264,7.833-9.804,5.109-14.816   C19.18,17,9.335,21.507,5.231,23.145c-7.229,2.873-4.388,10.5-1.877,17.622C5.862,47.879,8.048,54.514,15.276,51.632z"
   id="path5233" />
</g>
<g
   id="g5235">
	<path
   fill="#ECBE98"
   d="M10.419,32.784c2.437-1.295-3.889-7.527-5.78-9.36c-5.643,2.686-4.258,8.675-2.182,14.771   C4.472,36.881,9.61,33.215,10.419,32.784z"
   id="path5237" />
</g>
<g
   id="g5239">
	<path
   fill="#ECBE98"
   d="M20.019,37.821c-1.138-1.666-16.842,2.446-16.665,2.945c2.154,6.108,4.081,11.842,9.155,11.523   C13.609,50.441,21.15,39.486,20.019,37.821z"
   id="path5241" />
</g>
</svg>
